2017/02/20/桥接模式/bridge1.svg

<svg xmlns="http://www.w3.org/2000/svg" viewBox="82 86 915 359" width="915" height="359"><defs><marker id="a" markerUnits="userSpaceOnUse" orient="auto" markerWidth="16.236" markerHeight="10.551" viewBox="-1 -1.376 16.236 10.551" refX="-1" refY="3.899"><path d="M12 3.899l-12 3.9V0z" stroke="#323232" stroke-width="2" fill="#fff"/></marker><marker id="b" markerUnits="userSpaceOnUse" orient="auto" markerWidth="16.236" markerHeight="10.551" viewBox="-1 -1.376 16.236 10.551" refX="-1" refY="3.899"><path d="M12 3.899l-12 3.9V0z" stroke="#323232" stroke-width="2" fill="#fff"/></marker><marker id="c" markerUnits="userSpaceOnUse" orient="auto" markerWidth="16.236" markerHeight="10.551" viewBox="-1 -1.376 16.236 10.551" refX="-1" refY="3.899"><path d="M12 3.899l-12 3.9V0z" stroke="#323232" stroke-width="2" fill="#fff"/></marker><marker id="d" markerUnits="userSpaceOnUse" orient="auto" markerWidth="16.236" markerHeight="10.551" viewBox="-1 -1.376 16.236 10.551" refX="-1" refY="3.899"><path d="M12 3.899l-12 3.9V0z" stroke="#323232" stroke-width="2" fill="#fff"/></marker><marker id="e" markerUnits="userSpaceOnUse" orient="auto" markerWidth="20.61" markerHeight="10.888" viewBox="-2.305 -1.591 20.61 10.888" refX="16" refY="3.853"><path d="M0 3.853L8 0l8 3.853-8 3.852z" stroke="#323232" stroke-width="2" fill="#fff"/></marker><marker id="f" markerUnits="userSpaceOnUse" orient="auto" markerWidth="14.289" markerHeight="19.055" viewBox="-0.588 -0.809 14.289 19.055" refX="12" refY="8.719"><path d="M0 0l12 8.719-12 8.718" stroke="#323232" stroke-width="2" fill="none"/></marker></defs><path d="M82 86h915v359H82V86z" fill="#fff"/><path d="M701 110q0-4 4-4h139q4 0 4 4v107q0 4-4 4H705q-4 0-4-4z" stroke="#323232" stroke-width="2" fill="#fff"/><path d="M701 136h147m-147 42.5h147" stroke="#323232" stroke-width="2" fill="none"/><path d="M701 106h147v115H701z" fill="none"/><text font-weight="bold" text-decoration="blink" font-family="微软雅黑" text-anchor="middle" font-size="13" x="63.5" y="13.325" transform="translate(711 112.875)">手机软件</text><path d="M830 314q0-4 4-4h139q4 0 4 4v107q0 4-4 4H834q-4 0-4-4z" stroke="#323232" stroke-width="2" fill="#fff"/><path d="M830 340h147m-147 42.5h147" stroke="#323232" stroke-width="2" fill="none"/><path d="M830 310h147v115H830z" fill="none"/><text font-weight="bold" text-decoration="blink" font-family="微软雅黑" text-anchor="middle" font-size="13" x="63.5" y="13.325" transform="translate(840 316.875)">游戏</text><g><path d="M589 314q0-4 4-4h139q4 0 4 4v107q0 4-4 4H593q-4 0-4-4z" stroke="#323232" stroke-width="2" fill="#fff"/><path d="M589 340h147m-147 42.5h147" stroke="#323232" stroke-width="2" fill="none"/><path d="M589 310h147v115H589z" fill="none"/><text font-weight="bold" text-decoration="blink" font-family="微软雅黑" text-anchor="middle" font-size="13" x="63.5" y="13.325" transform="translate(599 316.875)">通讯录</text></g><g><path d="M333 314q0-4 4-4h139q4 0 4 4v107q0 4-4 4H337q-4 0-4-4z" stroke="#323232" stroke-width="2" fill="#fff"/><path d="M333 340h147m-147 42.5h147" stroke="#323232" stroke-width="2" fill="none"/><path d="M333 310h147v115H333z" fill="none"/><text font-weight="bold" text-decoration="blink" font-family="微软雅黑" text-anchor="middle" font-size="13" x="63.5" y="13.325" transform="translate(343 316.875)">手机品牌N</text></g><g><path d="M102 314q0-4 4-4h139q4 0 4 4v107q0 4-4 4H106q-4 0-4-4z" stroke="#323232" stroke-width="2" fill="#fff"/><path d="M102 340h147m-147 42.5h147" stroke="#323232" stroke-width="2" fill="none"/><path d="M102 310h147v115H102z" fill="none"/><text font-weight="bold" text-decoration="blink" font-family="微软雅黑" text-anchor="middle" font-size="13" x="63.5" y="13.325" transform="translate(112 316.875)">手机品牌M</text></g><g><path d="M213 110q0-4 4-4h139q4 0 4 4v107q0 4-4 4H217q-4 0-4-4z" stroke="#323232" stroke-width="2" fill="#fff"/><path d="M213 136h147m-147 42.5h147" stroke="#323232" stroke-width="2" fill="none"/><path d="M213 106h147v115H213z" fill="none"/><text font-weight="bold" text-decoration="blink" font-family="微软雅黑" text-anchor="middle" font-size="13" x="63.5" y="13.325" transform="translate(223 112.875)">手机品牌</text></g><g><path d="M662.5 310v-44.5h112v-29.264" stroke="#323232" stroke-width="2" fill="none" marker-end="url(#a)"/></g><g><path d="M903.5 310v-44.5h-129v-29.264" stroke="#323232" stroke-width="2" fill="none" marker-end="url(#b)"/></g><g><path d="M175.5 310v-44.5h111v-29.264" stroke="#323232" stroke-width="2" fill="none" marker-end="url(#c)"/></g><g><path d="M406.5 310v-44.5h-120v-29.264" stroke="#323232" stroke-width="2" fill="none" marker-end="url(#d)"/></g><g><path d="M378.305 163.5H701" stroke="#323232" stroke-width="2" fill="none" marker-start="url(#e)" marker-end="url(#f)"/></g></svg>

<svg xmlns="http://www.w3.org/2000/svg" xmlns:xlink="http://www.w3.org/1999/xlink" id="processonSvg1000" viewBox="82.0 86.0 915.0 359.0" width="915.0" height="359.0"><defs id="ProcessOnDefs1001"><marker id="ProcessOnMarker1067" markerUnits="userSpaceOnUse" orient="auto" markerWidth="16.23606797749979" markerHeight="10.550836550532098" viewBox="-1.0 -1.3763819204711736 16.23606797749979 10.550836550532098" refX="-1.0" refY="3.8990363547948754"><path id="ProcessOnPath1068" d="M12.0 3.8990363547948754L0.0 7.798072709589751V0.0Z" stroke="#323232" stroke-width="2.0" fill="#fff" transform="matrix(1.0,0.0,0.0,1.0,0.0,0.0)"/></marker><marker id="ProcessOnMarker1071" markerUnits="userSpaceOnUse" orient="auto" markerWidth="16.23606797749979" markerHeight="10.550836550532098" viewBox="-1.0 -1.3763819204711736 16.23606797749979 10.550836550532098" refX="-1.0" refY="3.8990363547948754"><path id="ProcessOnPath1072" d="M12.0 3.8990363547948754L0.0 7.798072709589751V0.0Z" stroke="#323232" stroke-width="2.0" fill="#fff" transform="matrix(1.0,0.0,0.0,1.0,0.0,0.0)"/></marker><marker id="ProcessOnMarker1075" markerUnits="userSpaceOnUse" orient="auto" markerWidth="16.23606797749979" markerHeight="10.550836550532098" viewBox="-1.0 -1.3763819204711736 16.23606797749979 10.550836550532098" refX="-1.0" refY="3.8990363547948754"><path id="ProcessOnPath1076" d="M12.0 3.8990363547948754L0.0 7.798072709589751V0.0Z" stroke="#323232" stroke-width="2.0" fill="#fff" transform="matrix(1.0,0.0,0.0,1.0,0.0,0.0)"/></marker><marker id="ProcessOnMarker1079" markerUnits="userSpaceOnUse" orient="auto" markerWidth="16.23606797749979" markerHeight="10.550836550532098" viewBox="-1.0 -1.3763819204711736 16.23606797749979 10.550836550532098" refX="-1.0" refY="3.8990363547948754"><path id="ProcessOnPath1080" d="M12.0 3.8990363547948754L0.0 7.798072709589751V0.0Z" stroke="#323232" stroke-width="2.0" fill="#fff" transform="matrix(1.0,0.0,0.0,1.0,0.0,0.0)"/></marker><marker id="ProcessOnMarker1083" markerUnits="userSpaceOnUse" orient="auto" markerWidth="20.609529741924973" markerHeight="10.888175666885001" viewBox="-2.3047648709624866 -1.5914908829822711 20.609529741924973 10.888175666885001" refX="16.0" refY="3.8525969504602293"><path id="ProcessOnPath1084" d="M0 3.8525969504602293L8.0 0L16.0 3.8525969504602293L8.0 7.705193900920459Z" stroke="#323232" stroke-width="2.0" fill="#fff"/></marker><marker id="ProcessOnMarker1085" markerUnits="userSpaceOnUse" orient="auto" markerWidth="14.289086868996552" markerHeight="19.055054660878554" viewBox="-0.5877852522924731 -0.8090169943749475 14.289086868996552 19.055054660878554" refX="12.0" refY="8.71851033606433"><path id="ProcessOnPath1086" d="M0 0L12.0 8.71851033606433L0 17.43702067212866" stroke="#323232" stroke-width="2.0" fill="none" transform="matrix(1.0,0.0,0.0,1.0,0.0,0.0)"/></marker></defs><g id="ProcessOnG1002"><path id="ProcessOnPath1003" d="M82.0 86.0H997.0V445.0H82.0V86.0Z" fill="#ffffff"/><g id="ProcessOnG1004"><g id="ProcessOnG1005" transform="matrix(1.0,0.0,0.0,1.0,701.0,106.0)" opacity="1.0"><path id="ProcessOnPath1006" d="M0.0 4.0Q0.0 0.0 4.0 0.0L143.0 0.0Q147.0 0.0 147.0 4.0L147.0 111.0Q147.0 115.0 143.0 115.0L4.0 115.0Q0.0 115.0 0.0 111.0Z" stroke="#323232" stroke-width="2.0" stroke-dasharray="none" opacity="1.0" fill="#ffffff"/><path id="ProcessOnPath1007" d="M0.0 30.0L147.0 30.0M0.0 72.5L147.0 72.5" stroke="#323232" stroke-width="2.0" stroke-dasharray="none" opacity="1.0" fill="none"/><path id="ProcessOnPath1008" d="M0.0 0.0L147.0 0.0L147.0 115.0L0.0 115.0Z" stroke="#323232" stroke-width="0.0" stroke-dasharray="none" opacity="1.0" fill="none"/><g id="ProcessOnG1009" transform="matrix(1.0,0.0,0.0,1.0,10.0,6.875)"><text id="ProcessOnText1010" fill="#000000" font-weight="bold" font-style="normal" text-decoration="blink" font-family="微软雅黑" text-anchor="middle" font-size="13" x="63.5" y="13.325">手机软件</text></g><g id="ProcessOnG1011" transform="matrix(1.0,0.0,0.0,1.0,10.0,43.125)"><text id="ProcessOnText1012" fill="#000000" font-weight="bold" font-style="normal" text-decoration="blink" font-family="微软雅黑" text-anchor="middle" font-size="13" x="63.5" y="13.325"></text></g><g id="ProcessOnG1013" transform="matrix(1.0,0.0,0.0,1.0,10.0,85.625)"><text id="ProcessOnText1014" fill="#000000" font-weight="bold" font-style="normal" text-decoration="blink" font-family="微软雅黑" text-anchor="middle" font-size="13" x="63.5" y="13.325"></text></g></g><g id="ProcessOnG1015" transform="matrix(1.0,0.0,0.0,1.0,830.0,310.0)" opacity="1.0"><path id="ProcessOnPath1016" d="M0.0 4.0Q0.0 0.0 4.0 0.0L143.0 0.0Q147.0 0.0 147.0 4.0L147.0 111.0Q147.0 115.0 143.0 115.0L4.0 115.0Q0.0 115.0 0.0 111.0Z" stroke="#323232" stroke-width="2.0" stroke-dasharray="none" opacity="1.0" fill="#ffffff"/><path id="ProcessOnPath1017" d="M0.0 30.0L147.0 30.0M0.0 72.5L147.0 72.5" stroke="#323232" stroke-width="2.0" stroke-dasharray="none" opacity="1.0" fill="none"/><path id="ProcessOnPath1018" d="M0.0 0.0L147.0 0.0L147.0 115.0L0.0 115.0Z" stroke="#323232" stroke-width="0.0" stroke-dasharray="none" opacity="1.0" fill="none"/><g id="ProcessOnG1019" transform="matrix(1.0,0.0,0.0,1.0,10.0,6.875)"><text id="ProcessOnText1020" fill="#000000" font-weight="bold" font-style="normal" text-decoration="blink" font-family="微软雅黑" text-anchor="middle" font-size="13" x="63.5" y="13.325">游戏</text></g><g id="ProcessOnG1021" transform="matrix(1.0,0.0,0.0,1.0,10.0,43.125)"><text id="ProcessOnText1022" fill="#000000" font-weight="bold" font-style="normal" text-decoration="blink" font-family="微软雅黑" text-anchor="middle" font-size="13" x="63.5" y="13.325"></text></g><g id="ProcessOnG1023" transform="matrix(1.0,0.0,0.0,1.0,10.0,85.625)"><text id="ProcessOnText1024" fill="#000000" font-weight="bold" font-style="normal" text-decoration="blink" font-family="微软雅黑" text-anchor="middle" font-size="13" x="63.5" y="13.325"></text></g></g><g id="ProcessOnG1025" transform="matrix(1.0,0.0,0.0,1.0,589.0,310.0)" opacity="1.0"><path id="ProcessOnPath1026" d="M0.0 4.0Q0.0 0.0 4.0 0.0L143.0 0.0Q147.0 0.0 147.0 4.0L147.0 111.0Q147.0 115.0 143.0 115.0L4.0 115.0Q0.0 115.0 0.0 111.0Z" stroke="#323232" stroke-width="2.0" stroke-dasharray="none" opacity="1.0" fill="#ffffff"/><path id="ProcessOnPath1027" d="M0.0 30.0L147.0 30.0M0.0 72.5L147.0 72.5" stroke="#323232" stroke-width="2.0" stroke-dasharray="none" opacity="1.0" fill="none"/><path id="ProcessOnPath1028" d="M0.0 0.0L147.0 0.0L147.0 115.0L0.0 115.0Z" stroke="#323232" stroke-width="0.0" stroke-dasharray="none" opacity="1.0" fill="none"/><g id="ProcessOnG1029" transform="matrix(1.0,0.0,0.0,1.0,10.0,6.875)"><text id="ProcessOnText1030" fill="#000000" font-weight="bold" font-style="normal" text-decoration="blink" font-family="微软雅黑" text-anchor="middle" font-size="13" x="63.5" y="13.325">通讯录</text></g><g id="ProcessOnG1031" transform="matrix(1.0,0.0,0.0,1.0,10.0,43.125)"><text id="ProcessOnText1032" fill="#000000" font-weight="bold" font-style="normal" text-decoration="blink" font-family="微软雅黑" text-anchor="middle" font-size="13" x="63.5" y="13.325"></text></g><g id="ProcessOnG1033" transform="matrix(1.0,0.0,0.0,1.0,10.0,85.625)"><text id="ProcessOnText1034" fill="#000000" font-weight="bold" font-style="normal" text-decoration="blink" font-family="微软雅黑" text-anchor="middle" font-size="13" x="63.5" y="13.325"></text></g></g><g id="ProcessOnG1035" transform="matrix(1.0,0.0,0.0,1.0,333.0,310.0)" opacity="1.0"><path id="ProcessOnPath1036" d="M0.0 4.0Q0.0 0.0 4.0 0.0L143.0 0.0Q147.0 0.0 147.0 4.0L147.0 111.0Q147.0 115.0 143.0 115.0L4.0 115.0Q0.0 115.0 0.0 111.0Z" stroke="#323232" stroke-width="2.0" stroke-dasharray="none" opacity="1.0" fill="#ffffff"/><path id="ProcessOnPath1037" d="M0.0 30.0L147.0 30.0M0.0 72.5L147.0 72.5" stroke="#323232" stroke-width="2.0" stroke-dasharray="none" opacity="1.0" fill="none"/><path id="ProcessOnPath1038" d="M0.0 0.0L147.0 0.0L147.0 115.0L0.0 115.0Z" stroke="#323232" stroke-width="0.0" stroke-dasharray="none" opacity="1.0" fill="none"/><g id="ProcessOnG1039" transform="matrix(1.0,0.0,0.0,1.0,10.0,6.875)"><text id="ProcessOnText1040" fill="#000000" font-weight="bold" font-style="normal" text-decoration="blink" font-family="微软雅黑" text-anchor="middle" font-size="13" x="63.5" y="13.325">手机品牌N</text></g><g id="ProcessOnG1041" transform="matrix(1.0,0.0,0.0,1.0,10.0,43.125)"><text id="ProcessOnText1042" fill="#000000" font-weight="bold" font-style="normal" text-decoration="blink" font-family="微软雅黑" text-anchor="middle" font-size="13" x="63.5" y="13.325"></text></g><g id="ProcessOnG1043" transform="matrix(1.0,0.0,0.0,1.0,10.0,85.625)"><text id="ProcessOnText1044" fill="#000000" font-weight="bold" font-style="normal" text-decoration="blink" font-family="微软雅黑" text-anchor="middle" font-size="13" x="63.5" y="13.325"></text></g></g><g id="ProcessOnG1045" transform="matrix(1.0,0.0,0.0,1.0,102.0,310.0)" opacity="1.0"><path id="ProcessOnPath1046" d="M0.0 4.0Q0.0 0.0 4.0 0.0L143.0 0.0Q147.0 0.0 147.0 4.0L147.0 111.0Q147.0 115.0 143.0 115.0L4.0 115.0Q0.0 115.0 0.0 111.0Z" stroke="#323232" stroke-width="2.0" stroke-dasharray="none" opacity="1.0" fill="#ffffff"/><path id="ProcessOnPath1047" d="M0.0 30.0L147.0 30.0M0.0 72.5L147.0 72.5" stroke="#323232" stroke-width="2.0" stroke-dasharray="none" opacity="1.0" fill="none"/><path id="ProcessOnPath1048" d="M0.0 0.0L147.0 0.0L147.0 115.0L0.0 115.0Z" stroke="#323232" stroke-width="0.0" stroke-dasharray="none" opacity="1.0" fill="none"/><g id="ProcessOnG1049" transform="matrix(1.0,0.0,0.0,1.0,10.0,6.875)"><text id="ProcessOnText1050" fill="#000000" font-weight="bold" font-style="normal" text-decoration="blink" font-family="微软雅黑" text-anchor="middle" font-size="13" x="63.5" y="13.325">手机品牌M</text></g><g id="ProcessOnG1051" transform="matrix(1.0,0.0,0.0,1.0,10.0,43.125)"><text id="ProcessOnText1052" fill="#000000" font-weight="bold" font-style="normal" text-decoration="blink" font-family="微软雅黑" text-anchor="middle" font-size="13" x="63.5" y="13.325"></text></g><g id="ProcessOnG1053" transform="matrix(1.0,0.0,0.0,1.0,10.0,85.625)"><text id="ProcessOnText1054" fill="#000000" font-weight="bold" font-style="normal" text-decoration="blink" font-family="微软雅黑" text-anchor="middle" font-size="13" x="63.5" y="13.325"></text></g></g><g id="ProcessOnG1055" transform="matrix(1.0,0.0,0.0,1.0,213.0,106.0)" opacity="1.0"><path id="ProcessOnPath1056" d="M0.0 4.0Q0.0 0.0 4.0 0.0L143.0 0.0Q147.0 0.0 147.0 4.0L147.0 111.0Q147.0 115.0 143.0 115.0L4.0 115.0Q0.0 115.0 0.0 111.0Z" stroke="#323232" stroke-width="2.0" stroke-dasharray="none" opacity="1.0" fill="#ffffff"/><path id="ProcessOnPath1057" d="M0.0 30.0L147.0 30.0M0.0 72.5L147.0 72.5" stroke="#323232" stroke-width="2.0" stroke-dasharray="none" opacity="1.0" fill="none"/><path id="ProcessOnPath1058" d="M0.0 0.0L147.0 0.0L147.0 115.0L0.0 115.0Z" stroke="#323232" stroke-width="0.0" stroke-dasharray="none" opacity="1.0" fill="none"/><g id="ProcessOnG1059" transform="matrix(1.0,0.0,0.0,1.0,10.0,6.875)"><text id="ProcessOnText1060" fill="#000000" font-weight="bold" font-style="normal" text-decoration="blink" font-family="微软雅黑" text-anchor="middle" font-size="13" x="63.5" y="13.325">手机品牌</text></g><g id="ProcessOnG1061" transform="matrix(1.0,0.0,0.0,1.0,10.0,43.125)"><text id="ProcessOnText1062" fill="#000000" font-weight="bold" font-style="normal" text-decoration="blink" font-family="微软雅黑" text-anchor="middle" font-size="13" x="63.5" y="13.325"></text></g><g id="ProcessOnG1063" transform="matrix(1.0,0.0,0.0,1.0,10.0,85.625)"><text id="ProcessOnText1064" fill="#000000" font-weight="bold" font-style="normal" text-decoration="blink" font-family="微软雅黑" text-anchor="middle" font-size="13" x="63.5" y="13.325"></text></g></g><g id="ProcessOnG1065"><path id="ProcessOnPath1066" d="M662.5 310.0L662.5 265.5L774.5 265.5L774.5 236.2360679774998" stroke="#323232" stroke-width="2.0" stroke-dasharray="none" fill="none" marker-end="url(#ProcessOnMarker1067)"/></g><g id="ProcessOnG1069"><path id="ProcessOnPath1070" d="M903.5 310.0L903.5 265.5L774.5 265.5L774.5 236.2360679774998" stroke="#323232" stroke-width="2.0" stroke-dasharray="none" fill="none" marker-end="url(#ProcessOnMarker1071)"/></g><g id="ProcessOnG1073"><path id="ProcessOnPath1074" d="M175.5 310.0L175.5 265.5L286.5 265.5L286.5 236.2360679774998" stroke="#323232" stroke-width="2.0" stroke-dasharray="none" fill="none" marker-end="url(#ProcessOnMarker1075)"/></g><g id="ProcessOnG1077"><path id="ProcessOnPath1078" d="M406.5 310.0L406.5 265.5L286.5 265.5L286.5 236.2360679774998" stroke="#323232" stroke-width="2.0" stroke-dasharray="none" fill="none" marker-end="url(#ProcessOnMarker1079)"/></g><g id="ProcessOnG1081"><path id="ProcessOnPath1082" d="M378.30476487096246 163.5L530.5 163.5L530.5 163.5L701.0 163.5" stroke="#323232" stroke-width="2.0" stroke-dasharray="none" fill="none" marker-start="url(#ProcessOnMarker1083)" marker-end="url(#ProcessOnMarker1085)"/></g></g></g></svg>
